svg/emoji_u1f686.svg

<svg xmlns="http://www.w3.org/2000/svg" width="128" height="128"><defs><path d="M113.87 17.12c-.11-2.13-1.57-4.97-3.24-6.3 0 0-12.97-10.37-47.3-10.37S17.27 10.69 17.27 10.69c-1.61 1.41-3.02 4.31-3.13 6.44l-2.72 50.76c-.11 2.14-.21 5.63-.21 7.77v31.77a3.9 3.9 0 0 0 3.89 3.89h97.82a3.9 3.9 0 0 0 3.89-3.89V75.64c0-2.14-.09-5.63-.21-7.77z" id="a"/></defs><g fill="#2f2f2f"><path d="M85.959 120.95c0 3.64 1.625 6.6 3.63 6.6 2.006 0 3.631-2.96 3.631-6.6V94.23c0-3.63-1.625-6.59-3.63-6.59-2.006 0-3.631 2.96-3.631 6.59zM42.602 120.95c0 3.64-1.751 6.6-3.911 6.6s-3.911-2.96-3.911-6.6V94.23c0-3.63 1.75-6.59 3.91-6.59s3.912 2.96 3.912 6.59z"/></g><path d="M54.139 3.762c-13.96 0-22.214 6.212-27.104 14.826V61.64a4.59 4.59 0 0 0 4.6 4.6h64.76a4.59 4.59 0 0 0 4.6-4.6V16.543c1.292 1.948 2.384 4.049 3.304 6.252C99.823 12.069 91.302 3.762 75.05 3.762H54.139zM27.023 18.609zm-1.318 2.565zm78.596 1.63zm-79.64.782zm80.525 1.52zm.732 2.218zM23.77 26.012c-.857 2.548-1.524 5.19-2.04 7.861.517-2.67 1.183-5.314 2.04-7.861zm82.822 3.717zm.553 2.328zm.474 2.373zm.4 2.406zm.329 2.408zm-86.641-5.246zm-.49 2.86zm-.373 2.703zm-.282 2.558c-.034.36-.06.714-.091 1.072.03-.357.057-.712.091-1.072zm88.301 2.701zM20.23 46.541c-.015.24-.035.483-.047.723.012-.239.032-.483.047-.723zm88.87 2.635zm.108 3.885v11.404a9.18 9.18 0 0 1-9.2 9.201H29.14a9.18 9.18 0 0 1-9.2-9.201V80.47c0 18.806 15.253 33.947 34.2 33.947H75.05c18.947 0 34.2-15.14 34.2-33.947V59.139c0-1.858-.01-3.926-.044-6.078zm-89.156-2.485zm-.094 4.457z" fill="#1a297e" stroke-width="3.78" stroke-linejoin="round"/><g fill="#fff"><path d="M50.365 84.173c0 3.29-2.684 5.973-5.981 5.973a5.975 5.975 0 0 1-5.974-5.973 5.975 5.975 0 0 1 5.974-5.973 5.976 5.976 0 0 1 5.98 5.973zM77.635 84.173a5.981 5.981 0 0 0 5.981 5.973 5.98 5.98 0 0 0 5.974-5.973 5.975 5.975 0 0 0-5.974-5.973 5.976 5.976 0 0 0-5.98 5.973z"/></g><rect width="25.788" height="15.273" x="51.106" y="92.746" rx="5.7" ry="5.7" fill="#1b1b1b" stroke-width="3.78" stroke-linejoin="round"/><path d="M100.994 16.543V61.641a4.59 4.59 0 0 1-4.6 4.6h-64.76a4.59 4.59 0 0 1-4.599-4.6V18.587C20.056 30.885 19.94 48.08 19.94 59.14v5.326a9.18 9.18 0 0 0 9.2 9.201h70.869a9.18 9.18 0 0 0 9.199-9.201V53.06c-.182-11.383-1.315-26.127-8.213-36.518z" fill="#64ff94" stroke-width="3.78" stroke-linejoin="round"/><path d="M37.717 24.56c-3.7 0-6.804 2.63-6.899 5.838l-3.783 24.39v6.853a4.59 4.59 0 0 0 4.6 4.6h64.76a4.59 4.59 0 0 0 4.6-4.6v-6.854l-3.753-24.389c-.49-3.188-3.208-5.837-6.898-5.837H37.717zm-8.834 34.35zm70.263 0zm-68.744 1.008zm66.647.246z" fill="#19ceff" stroke-width="3.78" stroke-linejoin="round"/><path d="M81.345 17.423H45.282a3.156 3.156 0 0 1-3.152-3.153 3.156 3.156 0 0 1 3.152-3.153h36.063a3.145 3.145 0 0 1 3.145 3.153 3.14 3.14 0 0 1-3.145 3.153z" fill="#fff"/></svg>

<?xml version="1.0" encoding="UTF-8" standalone="no"?>
<!DOCTYPE svg PUBLIC "-//W3C//DTD SVG 1.1//EN" "http://www.w3.org/Graphics/SVG/1.1/DTD/svg11.dtd">
<svg width="100%" height="100%" viewBox="0 0 128 128" version="1.1" xmlns="http://www.w3.org/2000/svg" xmlns:xlink="http://www.w3.org/1999/xlink" xml:space="preserve" xmlns:serif="http://www.serif.com/" style="fill-rule:evenodd;clip-rule:evenodd;stroke-linejoin:round;stroke-miterlimit:2;">
    <g>
        <path d="M85.959,120.95C85.959,124.59 87.584,127.55 89.589,127.55C91.595,127.55 93.22,124.59 93.22,120.95L93.22,94.23C93.22,90.6 91.595,87.64 89.59,87.64C87.584,87.64 85.959,90.6 85.959,94.23L85.959,120.95ZM42.602,120.95C42.602,124.59 40.851,127.55 38.691,127.55C36.531,127.55 34.78,124.59 34.78,120.95L34.78,94.23C34.78,90.6 36.53,87.64 38.69,87.64C40.85,87.64 42.602,90.6 42.602,94.23L42.602,120.95Z" style="fill:rgb(47,47,47);fill-rule:nonzero;"/>
    </g>
    <path d="M54.139,3.762C40.179,3.762 31.925,9.974 27.035,18.588L27.035,61.64C27.035,61.643 27.035,61.647 27.035,61.65C27.035,64.168 29.107,66.24 31.625,66.24C31.628,66.24 31.632,66.24 31.635,66.24L96.395,66.24C96.398,66.24 96.402,66.24 96.405,66.24C98.923,66.24 100.995,64.168 100.995,61.65C100.995,61.647 100.995,61.643 100.995,61.64L100.995,16.543C102.287,18.491 103.379,20.592 104.299,22.795C99.823,12.069 91.302,3.762 75.05,3.762L54.139,3.762ZM23.77,26.012C22.913,28.56 22.246,31.202 21.73,33.873C22.247,31.203 22.913,28.559 23.77,26.012ZM20.562,42.119C20.528,42.479 20.502,42.833 20.471,43.191C20.501,42.834 20.528,42.479 20.562,42.119ZM20.23,46.541C20.215,46.781 20.195,47.024 20.183,47.264C20.195,47.025 20.215,46.781 20.23,46.541ZM109.208,53.061L109.208,64.465C109.208,64.472 109.208,64.479 109.208,64.486C109.208,69.522 105.064,73.666 100.028,73.666C100.021,73.666 100.015,73.666 100.008,73.666L29.14,73.666C29.133,73.666 29.127,73.666 29.12,73.666C24.084,73.666 19.94,69.522 19.94,64.486C19.94,64.479 19.94,64.472 19.94,64.465L19.94,80.47C19.94,99.276 35.193,114.417 54.14,114.417L75.05,114.417C93.997,114.417 109.25,99.277 109.25,80.47L109.25,59.139C109.25,57.281 109.24,55.213 109.206,53.061L109.208,53.061Z" style="fill:rgb(12,94,159);fill-rule:nonzero;"/>
    <g>
        <path d="M50.365,84.173C50.365,87.463 47.681,90.146 44.384,90.146C41.107,90.145 38.411,87.45 38.41,84.173C38.411,80.896 41.107,78.201 44.384,78.2C44.385,78.2 44.387,78.2 44.388,78.2C47.665,78.2 50.362,80.896 50.364,84.173L50.365,84.173ZM77.635,84.173C77.639,87.451 80.338,90.146 83.616,90.146C86.892,90.143 89.586,87.449 89.59,84.173C89.589,80.896 86.893,78.201 83.616,78.2C83.615,78.2 83.613,78.2 83.612,78.2C80.335,78.2 77.638,80.896 77.636,84.173L77.635,84.173Z" style="fill:white;fill-rule:nonzero;"/>
    </g>
    <path d="M76.894,98.446C76.894,95.3 74.34,92.746 71.194,92.746L56.806,92.746C53.66,92.746 51.106,95.3 51.106,98.446L51.106,102.319C51.106,105.465 53.66,108.019 56.806,108.019L71.194,108.019C74.34,108.019 76.894,105.465 76.894,102.319L76.894,98.446Z" style="fill:rgb(27,27,27);"/>
    <path d="M100.994,16.543L100.994,61.641C100.994,61.644 100.994,61.648 100.994,61.651C100.994,64.169 98.922,66.241 96.404,66.241C96.401,66.241 96.397,66.241 96.394,66.241L31.634,66.241C31.631,66.241 31.628,66.241 31.625,66.241C29.107,66.241 27.035,64.169 27.035,61.651C27.035,61.648 27.035,61.644 27.035,61.641L27.035,18.587C20.056,30.885 19.94,48.08 19.94,59.14L19.94,64.466C19.94,64.473 19.94,64.48 19.94,64.487C19.94,69.523 24.084,73.667 29.12,73.667C29.127,73.667 29.133,73.667 29.14,73.667L100.009,73.667C100.015,73.667 100.022,73.667 100.028,73.667C105.064,73.667 109.208,69.523 109.208,64.487C109.208,64.48 109.208,64.473 109.208,64.466L109.208,53.06C109.026,41.677 107.893,26.933 100.995,16.542L100.994,16.543Z" style="fill:rgb(29,140,200);fill-rule:nonzero;"/>
    <path d="M37.717,24.56C34.017,24.56 30.913,27.19 30.818,30.398L27.035,54.788L27.035,61.641C27.035,61.644 27.035,61.648 27.035,61.651C27.035,64.169 29.107,66.241 31.625,66.241C31.628,66.241 31.632,66.241 31.635,66.241L96.395,66.241C96.398,66.241 96.402,66.241 96.405,66.241C98.923,66.241 100.995,64.169 100.995,61.651C100.995,61.648 100.995,61.644 100.995,61.641L100.995,54.787L97.242,30.398C96.752,27.21 94.034,24.561 90.344,24.561L37.717,24.561L37.717,24.56Z" style="fill:rgb(98,205,234);fill-rule:nonzero;"/>
    <path d="M81.345,17.423L45.282,17.423C43.553,17.421 42.132,15.999 42.13,14.27C42.132,12.541 43.553,11.119 45.282,11.117L81.345,11.117C83.07,11.117 84.49,12.537 84.49,14.262L84.49,14.283C84.49,16.006 83.073,17.423 81.35,17.423C81.348,17.423 81.347,17.423 81.345,17.423Z" style="fill:white;fill-rule:nonzero;"/>
</svg>
